X: 6
T: Convenience, The
C: Olcan Masterson
Z: Sean Perry
S: https://thesession.org/tunes/226#setting50896
R: reel
M: 4/4
L: 1/8
K: Dmaj
|:dABA dABA|GAFA EADA|dABA dABA|FAEA D3A:|
|:df~f2 df~f2|cdef gefe|df~f2 dfed|1 cABc d2 dA:|2 cABc defg||
|:~a3g ~f3e|cege cege|a2ag f2fe|dABc defg|
aA A/A/A aA aA|gA A/A/A gA gA|fgaf gbag|1 fdec defg:|2 fdec d3A||

